icons/tumblr-fill.svg

<svg xmlns="http://www.w3.org/2000/svg" width="24" height="24" fill="none"><g clip-path="url(#a)"><g><path fill="#121212" d="M6.26953 7.63C7.55645 7.35229 8.70939 6.64211 9.53637 5.61771C10.3633 4.59332 10.8144 3.31654 10.8145 2H13.8445V7.152H17.4815V10.788H13.8455V16.242C13.8455 16.757 14.0425 17.449 14.7545 17.909C15.2285 18.216 16.2385 18.367 17.7845 18.364V22H13.5425C12.9456 22.0001 12.3545 21.8827 11.8029 21.6543C11.2514 21.426 10.7502 21.0912 10.3281 20.6692C9.90594 20.2471 9.57106 19.746 9.34259 19.1945C9.11412 18.643 8.99653 18.0519 8.99653 17.455V10.788H6.26953V7.63Z"/></g></g><defs><clipPath id="a"><rect width="24" height="24" fill="white"/></clipPath></defs></svg>

<svg width="24" height="24" fill="none" xmlns="http://www.w3.org/2000/svg"><g clip-path="url(#a)"><path d="M6.27 7.63A5.76 5.76 0 0 0 10.815 2h3.03v5.152h3.636v3.636h-3.636v5.454c0 .515.197 1.207.91 1.667.473.307 1.483.458 3.03.455V22h-4.242a4.545 4.545 0 0 1-4.546-4.545v-6.667H6.27V7.63Z" /></g><defs><clipPath id="a"><path fill="#fff" d="M0 0h24v24H0z"/></clipPath></defs></svg>
